svgs/thin/code-branch.svg

<svg xmlns="http://www.w3.org/2000/svg" viewBox="0 0 448 512"><!--! Font Awesome Pro 6.3.0 by @fontawesome - https://fontawesome.com License - https://fontawesome.com/license (Commercial License) Copyright 2023 Fonticons, Inc. --><path d="M144 64C144 96.64 119.6 123.6 88 127.5V296.5C106.4 267.4 138.9 248 176 248H272C320.6 248 360 208.6 360 160V127.5C328.4 123.6 304 96.64 304 64C304 28.65 332.7 .0003 368 .0003C403.3 .0003 432 28.65 432 64C432 96.64 407.6 123.6 376 127.5V160C376 217.4 329.4 264 272 264H176C127.4 264 88 303.4 88 352V384.5C119.6 388.4 144 415.4 144 448C144 483.3 115.3 512 80 512C44.65 512 16 483.3 16 448C16 415.4 40.43 388.4 72 384.5V127.5C40.43 123.6 16 96.64 16 64C16 28.65 44.65 0 80 0C115.3 0 144 28.65 144 64V64zM80 112C106.5 112 128 90.51 128 64C128 37.49 106.5 16 80 16C53.49 16 32 37.49 32 64C32 90.51 53.49 112 80 112zM368 16C341.5 16 320 37.49 320 64C320 90.51 341.5 112 368 112C394.5 112 416 90.51 416 64C416 37.49 394.5 16 368 16zM80 496C106.5 496 128 474.5 128 448C128 421.5 106.5 400 80 400C53.49 400 32 421.5 32 448C32 474.5 53.49 496 80 496z"/></svg>

<svg xmlns="http://www.w3.org/2000/svg" viewBox="0 0 448 512"><!--! Font Awesome Pro 6.4.0 by @fontawesome - https://fontawesome.com License - https://fontawesome.com/license (Commercial License) Copyright 2023 Fonticons, Inc. --><path d="M80 112a48 48 0 1 0 0-96 48 48 0 1 0 0 96zm64-48c0 32.6-24.4 59.6-56 63.5v169c18.4-29.2 50.9-48.5 88-48.5h96c48.6 0 88-39.4 88-88V127.5c-31.6-3.9-56-30.9-56-63.5c0-35.3 28.7-64 64-64s64 28.7 64 64c0 32.6-24.4 59.6-56 63.5V160c0 57.4-46.6 104-104 104H176c-48.6 0-88 39.4-88 88v16 16.5c31.6 3.9 56 30.9 56 63.5c0 35.3-28.7 64-64 64s-64-28.7-64-64c0-32.6 24.4-59.6 56-63.5V368 352 127.5C40.4 123.6 16 96.6 16 64C16 28.7 44.7 0 80 0s64 28.7 64 64zm272 0a48 48 0 1 0 -96 0 48 48 0 1 0 96 0zM80 496a48 48 0 1 0 0-96 48 48 0 1 0 0 96z"/></svg>
